X: 41613
T: Up In The Garret
R: slip jig
M: 9/8
K: Adorian
|:cBA ABE A2 E|dcB ABA efd|cBA ABE A2 e|dBG GBG Bcd:|
|:ABG e2 d ecB|AB/A/G e2 d efd|ABG e2 d ecA|dBG GBG B/c/dB:|

